svg/color/ost.svg

<svg height="32" viewBox="0 0 32 32" width="32" xmlns="http://www.w3.org/2000/svg"><g fill="none"><circle cx="16" cy="16" fill="#34445b" r="16"/><g fill="#fff" transform="translate(7 3)"><path d="m8.93693694 7.22162162 2.01081076-3.13513513c1.0954955.23063063 2.1693694-.47567568 2.4-1.57117117.2306307-1.0954955-.4756756-2.16936937-1.5711711-2.4-1.0954955-.23063064-2.16936939.47567567-2.40000002 1.57117117-.12252253.56936937.01441441 1.16756756.36036036 1.62882883l-2.4936937 3.89189189c-4.38198198.43243243-7.57477477 4.33153149-7.14234234 8.70630629s4.33153153 7.5747748 8.70630631 7.1423424c4.37477479-.4324325 7.57477479-4.3315316 7.14234229-8.7063064-.3747747-3.7333333-3.2936936-6.70270265-7.01261256-7.12792788zm-.91531532 12.12252248c-2.33513513 0-4.22342342-1.8882882-4.22342342-4.2234234 0-2.3351351 1.88828829-4.2234234 4.22342342-4.2234234 1.75855856 0 3.32972978 1.0882883 3.94954958 2.7315315-.8288289-1.0666666-2.35675679-1.254054-3.42342345-.4324324-1.06666667.8216216-1.25405406 2.3567568-.43243243 3.4234234.82162162 1.0666667 2.35675678 1.2540541 3.42342338.4324325.1585586-.1225226.3027027-.2666667.4252253-.4252253-.6198199 1.6360361-2.19099103 2.7171171-3.94234238 2.7171171z"/><path d="m8.93693694 7.22162162 2.01081076-3.13513513c1.0954955.23063063 2.1693694-.47567568 2.4-1.57117117.2306307-1.0954955-.4756756-2.16936937-1.5711711-2.4-1.0954955-.23063064-2.16936939.47567567-2.40000002 1.57117117-.12252253.56936937.01441441 1.16756756.36036036 1.62882883l-2.4936937 3.89189189c-4.38198198.43243243-7.57477477 4.33153149-7.14234234 8.70630629s4.33153153 7.5747748 8.70630631 7.1423424c4.37477479-.4324325 7.57477479-4.3315316 7.14234229-8.7063064-.3747747-3.7333333-3.2936936-6.70270265-7.01261256-7.12792788zm-.91531532 12.12252248c-2.33513513 0-4.22342342-1.8882882-4.22342342-4.2234234 0-2.3351351 1.88828829-4.2234234 4.22342342-4.2234234 1.75855856 0 3.32972978 1.0882883 3.94954958 2.7315315-.8288289-1.0666666-2.35675679-1.254054-3.42342345-.4324324-1.06666667.8216216-1.25405406 2.3567568-.43243243 3.4234234.82162162 1.0666667 2.35675678 1.2540541 3.42342338.4324325.1585586-.1225226.3027027-.2666667.4252253-.4252253-.6198199 1.6360361-2.19099103 2.7171171-3.94234238 2.7171171z"/></g></g></svg>

<?xml version="1.0" encoding="UTF-8"?>
<svg width="32px" height="32px" viewBox="0 0 32 32" version="1.1" xmlns="http://www.w3.org/2000/svg" xmlns:xlink="http://www.w3.org/1999/xlink">
    <!-- Generator: Sketch 50 (54983) - http://www.bohemiancoding.com/sketch -->
    <title>color/ost</title>
    <desc>Created with Sketch.</desc>
    <defs></defs>
    <g id="color/ost" stroke="none" stroke-width="1" fill="none" fill-rule="evenodd">
        <g id="Group" fill="#34445B" fill-rule="nonzero">
            <circle id="Oval" cx="16" cy="16" r="16"></circle>
        </g>
        <g id="OST-(OST)" transform="translate(7.000000, 3.000000)" fill="#FFFFFF" fill-rule="nonzero">
            <path d="M8.93693694,7.22162162 L10.9477477,4.08648649 C12.0432432,4.31711712 13.1171171,3.61081081 13.3477477,2.51531532 C13.5783784,1.41981982 12.8720721,0.345945946 11.7765766,0.115315315 C10.6810811,-0.115315315 9.60720721,0.590990991 9.37657658,1.68648649 C9.25405405,2.25585586 9.39099099,2.85405405 9.73693694,3.31531532 L7.24324324,7.20720721 C2.86126126,7.63963964 -0.331531532,11.5387387 0.100900901,15.9135135 C0.533333333,20.2882883 4.43243243,23.4882883 8.80720721,23.0558559 C13.181982,22.6234234 16.381982,18.7243243 15.9495495,14.3495495 C15.5747748,10.6162162 12.6558559,7.64684685 8.93693694,7.22162162 Z M8.02162162,19.3441441 C5.68648649,19.3441441 3.7981982,17.4558559 3.7981982,15.1207207 C3.7981982,12.7855856 5.68648649,10.8972973 8.02162162,10.8972973 C9.78018018,10.8972973 11.3513514,11.9855856 11.9711712,13.6288288 C11.1423423,12.5621622 9.61441441,12.3747748 8.54774775,13.1963964 C7.48108108,14.018018 7.29369369,15.5531532 8.11531532,16.6198198 C8.93693694,17.6864865 10.4720721,17.8738739 11.5387387,17.0522523 C11.6972973,16.9297297 11.8414414,16.7855856 11.963964,16.627027 C11.3441441,18.2630631 9.77297297,19.3441441 8.02162162,19.3441441 Z" id="Shape"></path>
            <path d="M8.93693694,7.22162162 L10.9477477,4.08648649 C12.0432432,4.31711712 13.1171171,3.61081081 13.3477477,2.51531532 C13.5783784,1.41981982 12.8720721,0.345945946 11.7765766,0.115315315 C10.6810811,-0.115315315 9.60720721,0.590990991 9.37657658,1.68648649 C9.25405405,2.25585586 9.39099099,2.85405405 9.73693694,3.31531532 L7.24324324,7.20720721 C2.86126126,7.63963964 -0.331531532,11.5387387 0.100900901,15.9135135 C0.533333333,20.2882883 4.43243243,23.4882883 8.80720721,23.0558559 C13.181982,22.6234234 16.381982,18.7243243 15.9495495,14.3495495 C15.5747748,10.6162162 12.6558559,7.64684685 8.93693694,7.22162162 Z M8.02162162,19.3441441 C5.68648649,19.3441441 3.7981982,17.4558559 3.7981982,15.1207207 C3.7981982,12.7855856 5.68648649,10.8972973 8.02162162,10.8972973 C9.78018018,10.8972973 11.3513514,11.9855856 11.9711712,13.6288288 C11.1423423,12.5621622 9.61441441,12.3747748 8.54774775,13.1963964 C7.48108108,14.018018 7.29369369,15.5531532 8.11531532,16.6198198 C8.93693694,17.6864865 10.4720721,17.8738739 11.5387387,17.0522523 C11.6972973,16.9297297 11.8414414,16.7855856 11.963964,16.627027 C11.3441441,18.2630631 9.77297297,19.3441441 8.02162162,19.3441441 Z" id="Shape"></path>
        </g>
    </g>
</svg>
